X: 36016
T: Saxonburg
R: waltz
M: 3/4
K: Gmajor
|:DC|"G" B,2 B,D G2|B2 e2 B2|"D" d2 F2 FG|F2FG FE|
"D7" D2 DF A2|f2 f2 d2|"C" e2 e2 d2|"G" B4 DC|
"G" B,2 B,D G2|B2 e2 B2|"D" d2 F2 FG|F2FG FE|
"D7" D2 DE D2|D2 E2 F2|1 "G" G2 GD B,2|"G" G,4:|2 "G" G2 GB d2|g4||
[K:D]|:e=f|"D" f2 fe =f2|f2 f2 ef|e2 ed A2|F2 F2 cB|
"A7" A2 AB A2|C2 E2 B2|"G" A2 AB A2|"D"F2 A2 d2|
"D" f2 fe =f2|f2 f2 ef|e2 ed A2|F2 FA cB|
"A7"A2 AB A2|A2 B2 c2|1 "D" d2 dA F2|D4:|2 "D" d2 A2 F2|"D7"=c2 A2 F2||
[K:G]|"G" B,2 B,D G2|B2 e2 B2|"D" d2 F2 FG|F2FG FE|
"D7" D2 DF A2|f2 f2 d2|"C" e2 e2 d2|"G" B4 DC|
"G" B,2 B,D G2|B2 e2 B2|"D" d2 F2 FG|F2FG FE|
"D7" D2 DE D2|D2 E2 F2|"G" G2 GB d2|g4||

